;FLAVOR:Marlin
;TIME:9247
;Filament used: 6.24453m
;Layer height: 0.2
;MINX:50.688
;MINY:63.194
;MINZ:0.2
;MAXX:184.288
;MAXY:171.794
;MAXZ:2.8
;Generated with Cura_SteamEngine 5.2.1
M140 S70
M105
M190 S70
M104 S240
M105
M109 S240
M82 ;absolute extrusion mode
; Ender 3 Custom Start G-code
G92 E0 ; Reset Extruder
G28 ; Home all axes
G1 Z2.0 F3000 ; Move Z Axis up little to prevent scratching of Heat Bed
G1 X0.1 Y20 Z0.3 F5000.0 ; Move to start position
G1 X0.1 Y200.0 Z0.3 F1500.0 E15 ; Draw the first line
G1 X0.4 Y200.0 Z0.3 F5000.0 ; Move to side a little
G1 X0.4 Y20 Z0.3 F1500.0 E30 ; Draw the second line
G92 E0 ; Reset Extruder
G1 Z2.0 F3000 ; Move Z Axis up little to prevent scratching of Heat Bed
G1 X5 Y20 Z0.3 F5000.0 ; Move over to prevent blob squish
G92 E0
G92 E0
G1 F2700 E-5
;LAYER_COUNT:14
;LAYER:0
M107
G0 F6000 X54.594 Y66.24 Z0.2
;TYPE:SKIRT
G1 F2700 E0
G1 F900 X55.342 Y65.62 E0.03231
G1 X56.138 Y65.063 E0.06463
G1 X56.977 Y64.574 E0.09693
G1 X57.854 Y64.155 E0.12925
G1 X58.762 Y63.81 E0.16156
G1 X59.695 Y63.541 E0.19386
G1 X60.647 Y63.349 E0.22616
G1 X61.612 Y63.236 E0.25847
G1 X62.166 Y63.208 E0.27692
G1 X62.818 Y63.194 E0.29861
G1 X171.95 Y63.195 E3.92836
G1 X172.648 Y63.205 E3.95158
G1 X173.618 Y63.259 E3.98389
G1 X174.58 Y63.393 E4.01619
G1 X175.528 Y63.605 E4.0485
G1 X176.455 Y63.894 E4.0808
G1 X177.356 Y64.259 E4.11313
G1 X178.223 Y64.696 E4.14542
G1 X179.051 Y65.204 E4.17773
G1 X179.835 Y65.778 E4.21005
G1 X180.569 Y66.414 E4.24235
G1 X181.248 Y67.108 E4.27465
G1 X181.868 Y67.856 E4.30696
G1 X182.424 Y68.653 E4.33928
G1 X182.913 Y69.492 E4.37158
G1 X183.331 Y70.369 E4.40389
G1 X183.675 Y71.278 E4.43622
G1 X183.944 Y72.211 E4.46851
G1 X184.135 Y73.164 E4.50084
G1 X184.246 Y74.128 E4.53312
G1 X184.274 Y74.672 E4.55123
G1 X184.288 Y75.324 E4.57292
G1 X184.287 Y159.404 E7.36944
G1 X184.278 Y160.131 E7.39362
G1 X184.226 Y161.101 E7.42593
G1 X184.094 Y162.064 E7.45826
G1 X183.884 Y163.012 E7.49055
G1 X183.597 Y163.94 E7.52286
G1 X183.234 Y164.841 E7.55517
G1 X182.798 Y165.709 E7.58747
G1 X182.292 Y166.538 E7.61978
G1 X181.72 Y167.323 E7.65208
G1 X181.085 Y168.058 E7.68439
G1 X180.392 Y168.739 E7.7167
G1 X179.645 Y169.36 E7.74901
G1 X178.849 Y169.918 E7.78135
G1 X178.011 Y170.408 E7.81363
G1 X177.135 Y170.828 E7.84594
G1 X176.227 Y171.174 E7.87826
G1 X175.294 Y171.444 E7.91057
G1 X174.342 Y171.637 E7.94288
G1 X173.377 Y171.751 E7.9752
G1 X172.81 Y171.78 E7.99408
G1 X172.158 Y171.794 E8.01577
G1 X63.043 Y171.793 E11.64495
G1 X62.345 Y171.784 E11.66817
G1 X61.375 Y171.732 E11.70047
G1 X60.413 Y171.599 E11.73278
G1 X59.464 Y171.389 E11.7651
G1 X58.537 Y171.101 E11.79739
G1 X57.636 Y170.737 E11.82971
G1 X56.768 Y170.301 E11.86202
G1 X55.939 Y169.795 E11.89432
G1 X55.154 Y169.222 E11.92664
G1 X54.419 Y168.587 E11.95895
G1 X53.739 Y167.893 E11.99127
G1 X53.118 Y167.146 E12.02358
G1 X52.561 Y166.35 E12.05589
G1 X52.071 Y165.512 E12.08818
G1 X51.652 Y164.635 E12.1205
G1 X51.306 Y163.728 E12.15279
G1 X51.036 Y162.794 E12.18513
G1 X50.844 Y161.842 E12.21743
G1 X50.731 Y160.877 E12.24974
G1 X50.701 Y160.304 E12.26883
G1 X50.688 Y159.652 E12.29052
G1 X50.689 Y75.508 E15.08916
G1 X50.698 Y74.843 E15.11128
G1 X50.751 Y73.873 E15.14359
G1 X50.884 Y72.911 E15.17589
G1 X51.095 Y71.963 E15.20819
G1 X51.384 Y71.035 E15.24052
G1 X51.748 Y70.135 E15.27281
G1 X52.185 Y69.267 E15.30513
G1 X52.692 Y68.438 E15.33745
G1 X53.265 Y67.654 E15.36975
G1 X53.9 Y66.92 E15.40203
G1 X54.594 Y66.24 E15.43435
G0 F6000 X54.984 Y66.429
G1 F900 X55.728 Y65.83 E15.46612
G1 X56.52 Y65.296 E15.49789
G1 X57.353 Y64.83 E15.52963
G1 X58.222 Y64.435 E15.56138
G1 X59.121 Y64.114 E15.59313
G1 X60.044 Y63.87 E15.62488
G1 X60.985 Y63.704 E15.65667
G1 X62.177 Y63.607 E15.69644
G1 X62.818 Y63.594 E15.71777
G1 X171.944 Y63.595 E19.34731
G1 X172.642 Y63.605 E19.37053
G1 X173.596 Y63.659 E19.40231
G1 X174.541 Y63.792 E19.43405
G1 X175.472 Y64.004 E19.46581
G1 X176.382 Y64.293 E19.49757
G1 X177.265 Y64.657 E19.52933
G1 X178.114 Y65.094 E19.56109
G1 X178.923 Y65.6 E19.59283
G1 X179.687 Y66.172 E19.62457
G1 X180.401 Y66.806 E19.65633
G1 X181.059 Y67.498 E19.68809
G1 X181.657 Y68.242 E19.71984
G1 X182.191 Y69.034 E19.75161
G1 X182.656 Y69.868 E19.78337
G1 X183.051 Y70.737 E19.81512
G1 X183.37 Y71.637 E19.84688
G1 X183.614 Y72.56 E19.87863
G1 X183.779 Y73.501 E19.91041
G1 X183.874 Y74.684 E19.94988
G1 X183.888 Y75.324 E19.97117
G1 X183.887 Y159.399 E22.76752
G1 X183.878 Y160.126 E22.7917
G1 X183.826 Y161.079 E22.82344
G1 X183.695 Y162.025 E22.85521
G1 X183.485 Y162.957 E22.88698
G1 X183.198 Y163.867 E22.91872
G1 X182.835 Y164.75 E22.95047
G1 X182.4 Y165.6 E22.98223
G1 X181.895 Y166.411 E23.01401
G1 X181.325 Y167.176 E23.04574
G1 X180.692 Y167.891 E23.0775
G1 X180.002 Y168.551 E23.10926
G1 X179.258 Y169.15 E23.14102
G1 X178.468 Y169.685 E23.17276
G1 X177.635 Y170.152 E23.20452
G1 X176.766 Y170.548 E23.23628
G1 X175.867 Y170.87 E23.26804
G1 X174.944 Y171.115 E23.29981
G1 X174.004 Y171.282 E23.33156
G1 X172.799 Y171.381 E23.37177
G1 X172.158 Y171.394 E23.3931
G1 X63.048 Y171.393 E27.02211
G1 X62.35 Y171.384 E27.04533
G1 X61.397 Y171.332 E27.07707
G1 X60.451 Y171.2 E27.10884
G1 X59.52 Y170.989 E27.14059
G1 X58.609 Y170.702 E27.17236
G1 X57.726 Y170.339 E27.20411
G1 X56.877 Y169.903 E27.23586
G1 X56.066 Y169.398 E27.26763
G1 X55.301 Y168.827 E27.29938
G1 X54.587 Y168.194 E27.33112
G1 X53.927 Y167.503 E27.3629
G1 X53.328 Y166.76 E27.39465
G1 X52.794 Y165.969 E27.42639
G1 X52.327 Y165.136 E27.45815
G1 X51.932 Y164.267 E27.4899
G1 X51.61 Y163.368 E27.52166
G1 X51.366 Y162.445 E27.55341
G1 X51.199 Y161.505 E27.58517
G1 X51.101 Y160.293 E27.62561
G1 X51.088 Y159.652 E27.64694
G1 X51.089 Y75.514 E30.44538
G1 X51.098 Y74.849 E30.4675
G1 X51.151 Y73.895 E30.49928
G1 X51.283 Y72.95 E30.53101
G1 X51.495 Y72.019 E30.56277
G1 X51.783 Y71.109 E30.59452
G1 X52.146 Y70.226 E30.62627
G1 X52.582 Y69.376 E30.65804
G1 X53.088 Y68.566 E30.68981
G1 X53.66 Y67.802 E30.72155
G1 X54.293 Y67.087 E30.75331
G1 X54.984 Y66.429 E30.78505
G0 F6000 X55.374 Y66.621
G1 F900 X56.114 Y66.045 E30.81624
G1 X56.9 Y65.533 E30.84744
G1 X57.727 Y65.091 E30.87863
G1 X58.589 Y64.721 E30.90983
G1 X59.479 Y64.425 E30.94102
G1 X60.391 Y64.207 E30.97221
G1 X61.318 Y64.066 E31.0034
G1 X62.189 Y64.007 E31.03243
G1 X62.818 Y63.994 E31.05336
G1 X171.939 Y63.995 E34.68274
G1 X172.637 Y64.005 E34.70596
G1 X173.573 Y64.059 E34.73714
G1 X174.501 Y64.191 E34.76831
G1 X175.415 Y64.403 E34.79952
G1 X176.307 Y64.692 E34.83071
G1 X177.172 Y65.055 E34.86191
G1 X178.002 Y65.491 E34.89309
G1 X178.793 Y65.996 E34.9243
G1 X179.537 Y66.567 E34.9555
G1 X180.23 Y67.199 E34.98669
G1 X180.867 Y67.887 E35.01788
G1 X181.442 Y68.628 E35.04907
G1 X181.953 Y69.414 E35.08025
G1 X182.395 Y70.242 E35.11147
G1 X182.764 Y71.104 E35.14266
G1 X183.059 Y71.994 E35.17384
G1 X183.277 Y72.906 E35.20503
G1 X183.417 Y73.834 E35.23625
G1 X183.475 Y74.695 E35.26495
G1 X183.488 Y75.324 E35.28587
G1 X183.487 Y159.394 E38.08205
G1 X183.478 Y160.121 E38.10624
G1 X183.427 Y161.058 E38.13745
G1 X183.295 Y161.986 E38.16862
G1 X183.086 Y162.9 E38.19981
G1 X182.799 Y163.793 E38.231
G1 X182.437 Y164.659 E38.26222
G1 X182.003 Y165.49 E38.2934
G1 X181.499 Y166.281 E38.3246
G1 X180.93 Y167.026 E38.35578
G1 X180.299 Y167.721 E38.387
G1 X179.612 Y168.359 E38.41818
G1 X178.873 Y168.936 E38.44937
G1 X178.087 Y169.448 E38.48057
G1 X177.261 Y169.891 E38.51174
G1 X176.399 Y170.263 E38.54297
G1 X175.51 Y170.559 E38.57413
G1 X174.598 Y170.779 E38.60534
G1 X173.671 Y170.92 E38.63652
G1 X172.787 Y170.981 E38.66599
G1 X172.158 Y170.994 E38.68692
G1 X63.053 Y170.993 E42.31577
G1 X62.355 Y170.984 E42.33898
G1 X61.419 Y170.932 E42.37016
G1 X60.49 Y170.8 E42.40137
G1 X59.576 Y170.59 E42.43256
G1 X58.683 Y170.303 E42.46376
G1 X57.818 Y169.94 E42.49496
G1 X56.987 Y169.506 E42.52614
G1 X56.196 Y169.002 E42.55734
G1 X55.451 Y168.432 E42.58854
G1 X54.757 Y167.801 E42.61974
G1 X54.12 Y167.114 E42.6509
G1 X53.543 Y166.374 E42.68211
G1 X53.031 Y165.588 E42.71331
G1 X52.588 Y164.761 E42.74451
G1 X52.217 Y163.9 E42.77569
G1 X51.921 Y163.01 E42.80689
G1 X51.702 Y162.098 E42.83808
G1 X51.561 Y161.171 E42.86927
G1 X51.501 Y160.282 E42.89891
G1 X51.488 Y159.652 E42.91987
G1 X51.489 Y75.519 E45.71814
G1 X51.498 Y74.854 E45.74026
G1 X51.551 Y73.918 E45.77144
G1 X51.683 Y72.989 E45.80265
G1 X51.894 Y72.075 E45.83385
G1 X52.182 Y71.183 E45.86503
G1 X52.545 Y70.318 E45.89623
G1 X52.98 Y69.487 E45.92742
G1 X53.484 Y68.697 E45.95859
G1 X54.054 Y67.952 E45.98979
G1 X54.686 Y67.258 E46.02101
G1 X55.374 Y66.621 E46.05219
G0 F6000 X55.762 Y66.817
G1 F900 X56.498 Y66.264 E46.08281
G1 X57.279 Y65.776 E46.11344
G1 X58.099 Y65.358 E46.14406
G1 X58.953 Y65.013 E46.17469
G1 X59.833 Y64.743 E46.20531
G1 X60.733 Y64.551 E46.23591
G1 X61.647 Y64.437 E46.26655
G1 X62.2 Y64.407 E46.28497
G1 X62.818 Y64.394 E46.30553
G1 X171.933 Y64.395 E49.93471
G1 X172.631 Y64.405 E49.95793
G1 X173.55 Y64.458 E49.98854
G1 X174.461 Y64.591 E50.01916
G1 X175.357 Y64.802 E50.04978
G1 X176.231 Y65.09 E50.08039
G1 X177.078 Y65.453 E50.11104
G1 X177.889 Y65.888 E50.14165
G1 X178.659 Y66.392 E50.17226
G1 X179.383 Y66.961 E50.20288
G1 X180.055 Y67.591 E50.23352
G1 X180.67 Y68.276 E50.26414
G1 X181.223 Y69.012 E50.29476
G1 X181.71 Y69.793 E50.32537
G1 X182.127 Y70.614 E50.356
G1 X182.472 Y71.468 E50.38663
G1 X182.741 Y72.348 E50.41724
G1 X182.933 Y73.249 E50.44788
G1 X183.046 Y74.162 E50.47847
G1 X183.075 Y74.706 E50.49659
G1 X183.088 Y75.324 E50.51715
G1 X183.087 Y159.389 E53.31317
G1 X183.078 Y160.116 E53.33735
G1 X183.027 Y161.035 E53.36796
G1 X182.896 Y161.947 E53.39861
G1 X182.686 Y162.843 E53.42921
G1 X182.4 Y163.718 E53.45983
G1 X182.039 Y164.565 E53.49046
G1 X181.605 Y165.377 E53.52108
G1 X181.103 Y166.149 E53.55171
G1 X180.535 Y166.874 E53.58234
G1 X179.907 Y167.547 E53.61296
G1 X179.223 Y168.163 E53.64357
G1 X178.488 Y168.717 E53.67418
G1 X177.708 Y169.206 E53.7048
G1 X176.888 Y169.625 E53.73543
G1 X176.035 Y169.971 E53.76605
G1 X175.155 Y170.242 E53.79667
G1 X174.255 Y170.435 E53.82729
G1 X173.341 Y170.55 E53.85793
G1 X172.776 Y170.581 E53.87675
G1 X172.158 Y170.594 E53.89731
G1 X63.058 Y170.593 E57.52599
G1 X62.36 Y170.584 E57.5492
G1 X61.441 Y170.532 E57.57982
G1 X60.53 Y170.401 E57.61043
G1 X59.634 Y170.191 E57.64104
G1 X58.759 Y169.904 E57.67167
G1 X57.912 Y169.542 E57.7023
G1 X57.1 Y169.108 E57.73293
G1 X56.329 Y168.606 E57.76353
G1 X55.604 Y168.038 E57.79416
G1 X54.931 Y167.409 E57.8248
G1 X54.316 Y166.725 E57.85539
G1 X53.762 Y165.99 E57.886
G1 X53.274 Y165.209 E57.91663
G1 X52.855 Y164.389 E57.94726
G1 X52.509 Y163.536 E57.97788
G1 X52.239 Y162.656 E58.00849
G1 X52.046 Y161.755 E58.03914
G1 X51.932 Y160.842 E58.06974
G1 X51.901 Y160.271 E58.08876
G1 X51.888 Y159.652 E58.10936
G1 X51.889 Y75.525 E60.90743
G1 X51.898 Y74.86 E60.92955
G1 X51.95 Y73.94 E60.9602
G1 X52.082 Y73.029 E60.99082
G1 X52.293 Y72.133 E61.02143
G1 X52.58 Y71.258 E61.05206
G1 X52.943 Y70.412 E61.08268
G1 X53.377 Y69.6 E61.1133
G1 X53.88 Y68.829 E61.14392
G1 X54.449 Y68.105 E61.17455
G1 X55.077 Y67.433 E61.20514
G1 X55.762 Y66.817 E61.23578
G0 F6000 X56.15 Y67.018
G1 F900 X56.882 Y66.488 E61.26584
G1 X57.657 Y66.025 E61.29586
G1 X58.47 Y65.632 E61.3259
G1 X59.315 Y65.312 E61.35595
G1 X60.184 Y65.069 E61.38596
G1 X61.072 Y64.903 E61.41601
G1 X62.211 Y64.807 E61.45403
G1 X62.818 Y64.794 E61.47422
G1 X171.927 Y64.795 E65.1032
G1 X172.625 Y64.805 E65.12642
G1 X173.527 Y64.858 E65.15647
G1 X174.42 Y64.99 E65.18649
G1 X175.298 Y65.201 E65.21653
G1 X176.154 Y65.489 E65.24657
G1 X176.981 Y65.851 E65.27659
G1 X177.773 Y66.286 E65.30665
G1 X178.524 Y66.788 E65.33669
G1 X179.227 Y67.355 E65.36673
G1 X179.877 Y67.982 E65.39677
G1 X180.469 Y68.664 E65.42681
G1 X180.999 Y69.395 E65.45684
G1 X181.461 Y70.171 E65.48687
G1 X181.854 Y70.984 E65.51691
G1 X182.172 Y71.829 E65.54694
G1 X182.415 Y72.699 E65.57698
G1 X182.58 Y73.587 E65.60702
G1 X182.675 Y74.717 E65.64474
G1 X182.688 Y75.324 E65.66493
G1 X182.687 Y159.384 E68.46078
G1 X182.678 Y160.111 E68.48496
G1 X182.627 Y161.013 E68.51501
G1 X182.496 Y161.907 E68.54506
G1 X182.287 Y162.785 E68.57508
G1 X182.001 Y163.642 E68.60513
G1 X181.64 Y164.47 E68.63517
G1 X181.208 Y165.262 E68.66518
G1 X180.707 Y166.014 E68.69523
G1 X180.141 Y166.718 E68.72528
G1 X179.516 Y167.369 E68.75529
G1 X178.835 Y167.963 E68.78535
G1 X178.104 Y168.494 E68.8154
G1 X177.33 Y168.958 E68.84541
G1 X176.517 Y169.352 E68.87546
G1 X175.673 Y169.672 E68.90548
G1 X174.803 Y169.917 E68.93555
G1 X173.916 Y170.083 E68.96556
G1 X172.765 Y170.181 E69.00398
G1 X172.158 Y170.194 E69.02417
G1 X63.063 Y170.193 E72.65269
G1 X62.365 Y170.184 E72.67591
G1 X61.464 Y170.133 E72.70592
G1 X60.57 Y170.001 E72.73598
G1 X59.692 Y169.792 E72.766
G1 X58.835 Y169.505 E72.79606
G1 X58.008 Y169.144 E72.82607
G1 X57.215 Y168.711 E72.85612
G1 X56.464 Y168.21 E72.88615
G1 X55.76 Y167.644 E72.91619
G1 X55.109 Y167.018 E72.94623
G1 X54.516 Y166.337 E72.97626
G1 X53.986 Y165.606 E73.00629
G1 X53.522 Y164.831 E73.03634
G1 X53.128 Y164.018 E73.06639
G1 X52.808 Y163.174 E73.09641
G1 X52.564 Y162.304 E73.12646
G1 X52.398 Y161.416 E73.15651
G1 X52.301 Y160.261 E73.19506
G1 X52.288 Y159.652 E73.21532
G1 X52.289 Y75.53 E76.01323
G1 X52.298 Y74.865 E76.03535
G1 X52.35 Y73.963 E76.0654
G1 X52.482 Y73.07 E76.09542
G1 X52.692 Y72.192 E76.12545
G1 X52.979 Y71.335 E76.15551
G1 X53.341 Y70.508 E76.18553
G1 X53.774 Y69.716 E76.21556
G1 X54.276 Y68.965 E76.2456
G1 X54.843 Y68.261 E76.27567
G1 X55.469 Y67.611 E76.30568
G1 X56.15 Y67.018 E76.33571
G0 F6000 X56.538 Y67.223
G1 F900 X57.264 Y66.717 E76.36515
G1 X58.033 Y66.279 E76.39458
G1 X58.838 Y65.912 E76.42401
G1 X59.674 Y65.619 E76.45347
G1 X60.532 Y65.402 E76.48291
G1 X61.406 Y65.264 E76.51234
G1 X62.222 Y65.207 E76.53954
G1 X62.818 Y65.194 E76.55937
G1 X171.921 Y65.195 E80.18815
G1 X172.619 Y65.205 E80.21137
G1 X173.503 Y65.258 E80.24082
G1 X174.378 Y65.39 E80.27026
G1 X175.238 Y65.6 E80.2997
G1 X176.075 Y65.888 E80.32914
G1 X176.883 Y66.249 E80.35858
G1 X177.655 Y66.683 E80.38803
G1 X178.385 Y67.184 E80.41748
G1 X179.067 Y67.748 E80.44691
G1 X179.695 Y68.373 E80.47638
G1 X180.263 Y69.051 E80.5058
G1 X180.769 Y69.777 E80.53523
G1 X181.207 Y70.547 E80.5647
G1 X181.573 Y71.353 E80.59414
G1 X181.866 Y72.188 E80.62357
G1 X182.082 Y73.047 E80.65303
G1 X182.219 Y73.921 E80.68246
G1 X182.275 Y74.728 E80.70936
G1 X182.288 Y75.324 E80.72919
G1 X182.287 Y159.379 E83.52487
G1 X182.278 Y160.106 E83.54905
G1 X182.227 Y160.99 E83.5785
G1 X182.097 Y161.866 E83.60796
G1 X181.888 Y162.726 E83.63739
G1 X181.602 Y163.564 E83.66685
G1 X181.242 Y164.372 E83.69627
G1 X180.81 Y165.145 E83.72572
G1 X180.311 Y165.876 E83.75516
G1 X179.747 Y166.559 E83.78462
G1 X179.124 Y167.188 E83.81406
G1 X178.447 Y167.758 E83.8435
G1 X177.722 Y168.265 E83.87292
G1 X176.953 Y168.704 E83.90237
G1 X176.148 Y169.072 E83.93181
G1 X175.313 Y169.366 E83.96126
G1 X174.455 Y169.584 E83.9907
G1 X173.581 Y169.723 E84.02014
G1 X172.754 Y169.781 E84.04771
G1 X172.158 Y169.794 E84.06754
G1 X63.069 Y169.793 E87.69585
G1 X62.371 Y169.784 E87.71907
G1 X61.487 Y169.733 E87.74852
G1 X60.611 Y169.602 E87.77798
G1 X59.751 Y169.393 E87.80742
G1 X58.914 Y169.106 E87.83685
G1 X58.105 Y168.746 E87.8663
G1 X57.333 Y168.314 E87.89572
G1 X56.602 Y167.814 E87.92518
G1 X55.92 Y167.25 E87.95461
G1 X55.291 Y166.627 E87.98406
G1 X54.721 Y165.949 E88.01352
G1 X54.215 Y165.223 E88.04295
G1 X53.776 Y164.455 E88.07237
G1 X53.408 Y163.65 E88.10181
G1 X53.114 Y162.814 E88.13129
G1 X52.897 Y161.956 E88.16072
G1 X52.759 Y161.082 E88.19015
G1 X52.701 Y160.25 E88.21789
G1 X52.688 Y159.652 E88.23779
G1 X52.689 Y75.535 E91.03553
G1 X52.698 Y74.87 E91.05765
G1 X52.75 Y73.987 E91.08707
G1 X52.881 Y73.111 E91.11653
G1 X53.091 Y72.251 E91.14597
G1 X53.378 Y71.414 E91.1754
G1 X53.739 Y70.606 E91.20484
G1 X54.172 Y69.833 E91.23431
G1 X54.672 Y69.103 E91.26374
G1 X55.236 Y68.421 E91.29317
G1 X55.86 Y67.793 E91.32262
G1 X56.538 Y67.223 E91.35208
G0 F6000 X56.924 Y67.433
G1 F900 X57.645 Y66.952 E91.38091
G1 X58.407 Y66.539 E91.40973
G1 X59.204 Y66.199 E91.43855
G1 X60.03 Y65.933 E91.46741
